!!!!SEGMENT: pl-cz--ii-87--001-011_zientarski-romuald-teodor--msza-swieta-benedictio.krn
!!!cenid: 18xx:1172
!!!COM: Zientarski, Romuald Teodor
!!!COM-rismid: pe30001080
!!!CDT: ~1830-1874
!!!CNT: Polish
!!!OPR: Msza Święta
!!!OTL: Benedictio
!!!OMV: 011
!!!PDT: 1888
!!!AGN: Sacred; Mass
!!!SMS-siglum: PL-CZ
!!!SMS-shelfmark: II-87
!!!SMS-shelfwork: 001-011 M
!!!SMS-variant:
!!!SMS-altvar:
!!!NIFC-rismid: 300033224
!!!URL-scan: http://repozytorium.nifc.pl/skany/pl-cz-nut--ii-87
!!!ONB-nifc: UWAGA: części Mszy: Kyrie, Gloria, Graduale, Credo, Et incarnatus, Et resurrexit, Offertorium, Sanctus, Benedictus, Agnus Dei, Benedictio
!!!OMD: Allegro risolutto.
!!!key: C
**kern	**kern	**text	**dynam
*part1	*part1	*part1	*part1
*staff2	*staff1	*staff1	*
*I"[Organo]	*	*	*
*Iorgan	*	*	*
*ICklav	*	*	*
*clefF4	*clefG2	*	*
*k[]	*k[]	*	*
*C:	*C:	*	*
*M4/4	*M4/4	*	*
*met(c)	*met(c)	*	*
=1	=1	=1	=1
!	!	!	!LO:DY:rj
4C/	4c/	Po-	f
2E\	2e/	-wstań-	.
4C/	4c/	-my	.
=2	=2	=2	=2
2G\	(<2g/	wszy-	.
4E\	4e/	-scy	.
[>(<4C/	4c/)	gro-	.
=3	=3	=3	=3
!	!	!	!LO:HP:a
1C_> [<1CC)	1a 1f	-ma-	<
!	!	!	!LO:HP:a
.	.	.	[ >
.	.	.	]
=4	=4	=4	=4
2C] 2CC/]	2g/	-dnie	.
2r	2r	.	.
=5	=5	=5	=5
*^	*^	*	*
(>2A/	1C	2cc/	2d#X\	Bądz-	.
2F#X/)	.	4b/	2ryy	-my	.
.	.	4a/	.	szczę-	.
=6	=6	=6	=6	=6	=6
*	*^	*	*	*	*
4G/	4C\	1C	4g/	4e\	-sli-	.
4r	4ryy	.	4e/	4c\	-wi	.
!	!	!	!	!LO:N:vis=1	!	!
2r	4E\	.	4ryy	2c	.	.
.	4C\	.	4d/	.	i	.
*v	*v	*v	*	*	*	*
*	*v	*v	*	*
=7	=7	=7	=7
!	!	!	!LO:HP:a
1C 1CC	1a 1f	pra-	<
!	!	!	!LO:HP:a
.	.	.	[ >
.	.	.	]
=8	=8	=8	=8
2C 2CC/	2g 2e/	-wi	.
4r	4r	.	.
4G\	4g/	Tu	.
=9	=9	=9	=9
1G 1GG	2.dd\	Ka-	.
.	4b\	-płan	.
!!LO:LB:g=original
=10	=10	=10	=10
*^	*	*	*
4ryy	2.G\	(>4g/	na	.
4B/	.	4ff\)	.	.
2c/	.	8ee\	nas	.
.	.	8r	.	.
.	4E\	8b\L	krzyż!	.
.	.	8cc\J	.	.
*v	*v	*	*	*
=11	=11	=11	=11
1c 1G	1ee	kła-	.
=12	=12	=12	=12
*^	*	*	*
!	!	!	!	!LO:HP:a:t=crescen.
2B/	2G\	2dd\	-dnie,	<
4r	2ryy	4r	.	.
4G\	.	4g/	A	.
*v	*v	*	*	*
=13	=13	=13	=13
(>4c\	(>4ee\	w_nie-	.
4B\	4dd\	.	.
4A\	4ff\)	.	.
4G\)	4ee\	-bie	.
=14	=14	=14	=14
*^	*^	*	*
!	!	!LO:S:s=1:note:problem:note-level slur	!	!	!
4c/	(<4F\	(<(>4aa/	4cc\	Bóg	.
4c#X/	4E\	4gg/)	2a\	.	.
2d/	4D\	4ff/	.	bło-	.
.	4F\)	4dd/)	4ryy	-go-	.
=15	=15	=15	=15	=15	=15
!	!	!	!LO:S:s=1:note:problem:note-level slur	!	!
4e/	2G\	(>2.cc/	(>4g\	-sła-	.
4d#X/	.	.	4f#X\	.	.
2dn\	2ryy	.	2fn\)	.	.
.	.	4b/)	.	-wi	.
=16	=16	=16	=16	=16	=16
2c/	2G 2C\	4cc/	2e\	.	.
.	.	4b/	.	.	.
2r	2ryy	4cc/	2r	.	.
.	.	[<4ee/	.	.	.
*v	*v	*	*	*	*
*	*v	*v	*	*
!!LO:LB:g=original
=17	=17	=17	=17
!	!LO:S:s=2:note:problem:note-level slur	!	!
(>1c#X (<1C#X	(>1gg (<1ee^] [1a	A-	.
=18	=18	=18	=18
*	*^	*	*
(>4d) 4D\)	1ff) 1dd)	2.a\]	-men	.
4e 4E\	.	.	.	.
4d 4D\	.	.	.	.
4c 4C\)	.	4a-X\	.	.
*	*v	*v	*	*
=19	=19	=19	=19
1B 1BB	1ff 1dd 1g	A-	.
=20	=20	=20	=20
4c 4C\	1ee 1cc 1g	-men	.
4d 4D\	.	.	.
4c 4C\	.	.	.
4B-X 4BB-X\	.	.	.
=21	=21	=21	=21
*	*^	*	*
2A 2AA\	2ff 2cc/	2f\	A-	.
2A-X 2AA-X\	2dd#X 2f#X/	2ryy	-men	.
=22	=22	=22	=22	=22
[>1G [<1GG	2ee/	1cc 1g	A-	.
.	2ee-X/	.	.	.
=23	=23	=23	=23	=23
!	!LO:TX:b:t=g	!	!	!
1G] 1GG]	1dd 1g	(>4cc\	.	.
.	.	4b\	.	.
.	.	4a\	.	.
.	.	4b\)	.	.
*	*v	*v	*	*
=24	=24	=24	=24
2G 2C\	2cc 2e/	-men	.
!	!LO:TX:b:t=Finis.	!	!
2C 2CC;/	2r;	.	.
==	==	==	==
*-	*-	*-	*-
!!!system-decoration: (s1,s2)
!!!RDF**kern: > = above
!!!RDF**kern: < = below
!!!AIN: 1 organ
!!!ENC: Berenika Jozajtis
!!!END: 2020-11-07
!!!ENC: Andrzej Kubiczek
!!!END: 2021-11-16
